X: 1
T: Liz Power
M: 6/8
L: 1/8
R: jig
K: Dmaj
|:A|Adc A2F|GFG GAA-|Adc Ade|(e~f2) edB|
Adc A2F|GFG GAA|Adc BAF|1 EDD D2:|2 EDD D2||
|:d|cAA ABc|dff edd|cAA ABc|dfa ~g2a|
fdc A2F|GFG GAA|Adc BAF|EDD D2:|
